SVG_Azure_Grouped/Workload/Enterprise Certification Authority Offline Root.svg

<?xml version="1.0" encoding="UTF-8" standalone="no"?>
<!-- Generated by Microsoft Visio, SVG Export Enterprise Certification Authority Offline Root.svg Page-1 -->

<svg
   xmlns:dc="http://purl.org/dc/elements/1.1/"
   xmlns:cc="http://creativecommons.org/ns#"
   xmlns:rdf="http://www.w3.org/1999/02/22-rdf-syntax-ns#"
   xmlns:svg="http://www.w3.org/2000/svg"
   xmlns="http://www.w3.org/2000/svg"
   xmlns:sodipodi="http://sodipodi.sourceforge.net/DTD/sodipodi-0.dtd"
   xmlns:inkscape="http://www.inkscape.org/namespaces/inkscape"
   width="0.66925508in"
   height="0.78741843in"
   viewBox="0 0 48.186317 56.694305"
   xml:space="preserve"
   class="st13"
   version="1.1"
   id="svg185"
   sodipodi:docname="Enterprise Certification Authority Offline Root.svg"
   style="font-size:12px;overflow:visible;color-interpolation-filters:sRGB;fill:none;fill-rule:evenodd;stroke-linecap:square;stroke-miterlimit:3"
   inkscape:version="0.92.5 (2060ec1f9f, 2020-04-08)"><metadata
   id="metadata189"><rdf:RDF><cc:Work
       rdf:about=""><dc:format>image/svg+xml</dc:format><dc:type
         rdf:resource="http://purl.org/dc/dcmitype/StillImage" /></cc:Work></rdf:RDF></metadata><sodipodi:namedview
   pagecolor="#ffffff"
   bordercolor="#666666"
   borderopacity="1"
   objecttolerance="10"
   gridtolerance="10"
   guidetolerance="10"
   inkscape:pageopacity="0"
   inkscape:pageshadow="2"
   inkscape:window-width="640"
   inkscape:window-height="480"
   id="namedview187"
   showgrid="false"
   inkscape:zoom="1.4059268"
   inkscape:cx="30.81964"
   inkscape:cy="37.425218"
   inkscape:window-x="0"
   inkscape:window-y="0"
   inkscape:window-maximized="0"
   inkscape:current-layer="svg185" />
	<style
   type="text/css"
   id="style2">
	<![CDATA[
		.st1 {fill:url(#grad0-11);stroke:none;stroke-linecap:butt;stroke-width:35.9597}
		.st2 {fill:#003067;stroke:none;stroke-linecap:butt;stroke-width:35.9597}
		.st3 {fill:#50e6ff;stroke:none;stroke-linecap:butt;stroke-width:35.9597}
		.st4 {fill:#ffffff;fill-opacity:0.75;stroke:none;stroke-linecap:butt;stroke-width:35.9597}
		.st5 {fill:url(#grad0-34);stroke:none;stroke-linecap:butt;stroke-width:33.9998}
		.st6 {fill:#ffffff;stroke:none;stroke-linecap:butt;stroke-width:33.9998}
		.st7 {fill:#d15900;stroke:none;stroke-linecap:butt;stroke-width:33.9998}
		.st8 {fill:#b31b1b;stroke:none;stroke-linecap:butt;stroke-width:33.9998}
		.st9 {fill:#e62323;stroke:none;stroke-linecap:butt;stroke-width:33.9998}
		.st10 {fill:#ffb34d;stroke:none;stroke-linecap:butt;stroke-width:33.9998}
		.st11 {fill:#773adc;stroke:none;stroke-linecap:butt;stroke-width:34}
		.st12 {fill:#f9f9f9;fill-opacity:0.5;stroke:none;stroke-linecap:butt;stroke-width:34}
		.st13 {fill:none;fill-rule:evenodd;font-size:12px;overflow:visible;stroke-linecap:square;stroke-miterlimit:3}
	]]>
	</style>

	<defs
   id="Patterns_And_Gradients">
		<linearGradient
   id="grad0-11"
   x1="-0.00026635694"
   y1="55.371508"
   x2="41.371113"
   y2="55.371508"
   gradientTransform="scale(0.76841055,1.3013877)"
   gradientUnits="userSpaceOnUse">
			<stop
   offset="0"
   stop-color="#949494"
   stop-opacity="1"
   id="stop4" />
			<stop
   offset="0.53"
   stop-color="#a2a2a2"
   stop-opacity="1"
   id="stop6" />
			<stop
   offset="1"
   stop-color="#b3b3b3"
   stop-opacity="1"
   id="stop8" />
		</linearGradient>
		<linearGradient
   id="grad0-34"
   x1="0"
   y1="131.74369"
   x2="20.470399"
   y2="131.74369"
   gradientTransform="scale(1.2090078,0.82712454)"
   gradientUnits="userSpaceOnUse">
			<stop
   offset="0"
   stop-color="#e27908"
   stop-opacity="1"
   id="stop11" />
			<stop
   offset="0.325"
   stop-color="#e47d0a"
   stop-opacity="1"
   id="stop13" />
			<stop
   offset="0.62"
   stop-color="#eb8810"
   stop-opacity="1"
   id="stop15" />
			<stop
   offset="0.91"
   stop-color="#f69a19"
   stop-opacity="1"
   id="stop17" />
			<stop
   offset="1"
   stop-color="#faa21d"
   stop-opacity="1"
   id="stop19" />
		</linearGradient>
	</defs>
	<g
   id="g183"
   transform="translate(-35.959942,-34.322698)">
		<title
   id="title23">Page-1</title>
		<g
   id="group15700-1"
   transform="translate(35.9599,-34.883)">
			<title
   id="title25">Enterprise Certification Authority Offline Root.15700</title>
			<g
   id="group15701-2">
				<title
   id="title27">Page-1</title>
				<g
   id="group15702-3">
					<title
   id="title29">Sheet.15702</title>
					<g
   id="group15703-4"
   transform="translate(0,-1.21412)">
						<title
   id="title31">Sheet.15703</title>
						<g
   id="group15704-5">
							<title
   id="title33">Icon-databases-136.149</title>
							<g
   id="group15705-6">
								<title
   id="title35">path4-5</title>
								<g
   id="group15706-7">
									<title
   id="title37">Sheet.15706</title>
									<g
   id="shape15707-8">
										<title
   id="title39">Sheet.15707</title>
										<path
   d="m 31.79,124.06 a 1.87777,1.86752 -180 0 1 -1.84,1.84 H 1.84 A 1.8454,1.83531 -180 0 1 0,124.06 V 73.89 a 1.81302,1.80311 -180 0 1 1.84,-1.83 h 28.11 a 1.8454,1.83531 -180 0 1 1.84,1.83 z"
   class="st1"
   id="path41"
   inkscape:connector-curvature="0"
   style="fill:url(#grad0-11);stroke:none;stroke-width:35.95970154;stroke-linecap:butt" />
									</g>
								</g>
							</g>
							<g
   id="group15708-12"
   transform="translate(4.66205,-31.5222)">
								<title
   id="title46">path6-7</title>
								<g
   id="group15709-13">
									<title
   id="title48">Sheet.15709</title>
									<g
   id="shape15710-14">
										<title
   id="title50">Sheet.15710</title>
										<path
   d="m 0,122.46 a 3.46416,3.44524 -180 0 1 3.43,-3.43 h 15.86 a 3.46416,3.44524 -180 0 1 3.56,3.43 3.46416,3.44524 -180 0 1 -3.56,3.44 H 3.43 A 3.46416,3.44524 -180 0 1 0,122.46 Z m 0,-10.19 a 3.46416,3.44524 -180 0 1 3.43,-3.44 h 15.86 a 3.46416,3.44524 -180 0 1 3.56,3.44 3.46416,3.44524 -180 0 1 -3.56,3.42 H 3.43 A 3.46416,3.44524 -180 0 1 0,112.27 Z"
   class="st2"
   id="path52"
   inkscape:connector-curvature="0"
   style="fill:#003067;stroke:none;stroke-width:35.95970154;stroke-linecap:butt" />
									</g>
								</g>
							</g>
							<g
   id="group15711-16"
   transform="translate(5.95706,-42.8242)">
								<title
   id="title57">circle8-5</title>
								<g
   id="group15712-17">
									<title
   id="title59">Sheet.15712</title>
									<g
   id="shape15713-18">
										<title
   id="title61">Sheet.15713</title>
										<ellipse
   cx="2.3310201"
   cy="123.577"
   rx="2.3310201"
   ry="2.31829"
   class="st3"
   id="ellipse63"
   style="fill:#50e6ff;stroke:none;stroke-width:35.95970154;stroke-linecap:butt" />
									</g>
								</g>
							</g>
							<g
   id="group15714-20"
   transform="translate(5.95706,-32.6496)">
								<title
   id="title68">circle10-2</title>
								<g
   id="group15715-21">
									<title
   id="title70">Sheet.15715</title>
									<g
   id="shape15716-22">
										<title
   id="title72">Sheet.15716</title>
										<ellipse
   cx="2.3310201"
   cy="123.577"
   rx="2.3310201"
   ry="2.31829"
   class="st3"
   id="ellipse74"
   style="fill:#50e6ff;stroke:none;stroke-width:35.95970154;stroke-linecap:butt" />
									</g>
								</g>
							</g>
						</g>
					</g>
					<g
   id="group15717-24"
   transform="translate(0,-1.07664)">
						<title
   id="title81">Sheet.15717</title>
						<g
   id="shape15718-25">
							<title
   id="title83">Sheet.15718</title>
							<path
   d="m 31.79,124.06 a 1.87777,1.86752 -180 0 1 -1.84,1.84 H 1.84 A 1.8454,1.83531 -180 0 1 0,124.06 V 73.89 a 1.81302,1.80311 -180 0 1 1.84,-1.83 h 28.11 a 1.8454,1.83531 -180 0 1 1.84,1.83 z"
   class="st4"
   id="path85"
   inkscape:connector-curvature="0"
   style="fill:#ffffff;fill-opacity:0.75;stroke:none;stroke-width:35.95970154;stroke-linecap:butt" />
						</g>
					</g>
					<g
   id="group15719-27"
   transform="translate(23.1191,-34.8277)">
						<title
   id="title89">Management Certificate.1189</title>
						<g
   id="group15720-28">
							<title
   id="title91">g14</title>
							<g
   id="group15721-29"
   transform="translate(0,-4.93504)">
								<title
   id="title93">rect2</title>
								<g
   id="group15722-30">
									<title
   id="title95">Sheet.15722</title>
									<g
   id="shape15723-31">
										<title
   id="title97">Sheet.15723</title>
										<path
   d="m 0,125.1 a 0.824774,0.796774 0 0 0 0.821337,0.79155 L 23.92,125.9 a 0.824774,0.796774 0 0 0 0.828872,-0.79155 L 24.74,109.76 a 0.824774,0.796774 0 0 0 -0.828872,-0.79155 L 0.83,108.97 a 0.824774,0.796774 0 0 0 -0.821337,0.79155 z"
   class="st5"
   id="path99"
   inkscape:connector-curvature="0"
   style="fill:url(#grad0-34);stroke:none;stroke-width:33.99980164;stroke-linecap:butt" />
									</g>
								</g>
							</g>
							<g
   id="group15724-35"
   transform="translate(1.44332,-6.42308)">
								<title
   id="title104">rect4</title>
								<g
   id="group15725-36">
									<title
   id="title106">Sheet.15725</title>
									<g
   id="shape15726-37">
										<title
   id="title108">Sheet.15726</title>
										<path
   d="m 0,125.5 a 0.412385,0.398388 0 0 0 0.412376,0.39838 L 21.44,125.89 a 0.412385,0.398388 0 0 0 0.412376,-0.39838 L 21.86,112.35 a 0.412385,0.398388 0 0 0 -0.412376,-0.39838 L 0.41,111.95 a 0.412385,0.398388 0 0 0 -0.412376,0.39838 z"
   class="st6"
   id="path110"
   inkscape:connector-curvature="0"
   style="fill:#ffffff;stroke:none;stroke-width:33.99980164;stroke-linecap:butt" />
									</g>
								</g>
							</g>
							<g
   id="group15727-39"
   transform="translate(4.75883,-10.0883)">
								<title
   id="title115">path6</title>
								<g
   id="group15728-40">
									<title
   id="title117">Sheet.15728</title>
									<g
   id="shape15729-41">
										<title
   id="title119">Sheet.15729</title>
										<path
   d="m 15.78,125.51 a 0.39863,0.385099 0 0 1 -0.39863,0.3851 L 6.47,125.9 a 0.39863,0.385099 0 1 1 0,-0.76887 l 8.92,-0.001 a 0.397255,0.383772 0 0 1 0.39863,0.38377 z m 0,-2.38 a 0.397255,0.383772 0 0 1 -0.39863,0.38377 L 6.47,123.51 a 0.39863,0.385099 0 1 1 0,-0.76887 l 8.92,-0.001 a 0.39863,0.385099 0 0 1 0.39863,0.3851 z m 0,-3.47 a 0.39863,0.385099 0 0 1 -0.39863,0.3851 L 0.42,120.04 a 0.39863,0.385099 0 1 1 0,-0.76887 l 14.97,-0.001 a 0.397255,0.383772 0 0 1 0.39863,0.38377 z"
   class="st7"
   id="path121"
   inkscape:connector-curvature="0"
   style="fill:#d15900;stroke:none;stroke-width:33.99980164;stroke-linecap:butt" />
									</g>
								</g>
							</g>
							<g
   id="group15730-43"
   transform="translate(2.12649)">
								<title
   id="title126">path8</title>
								<g
   id="group15731-44">
									<title
   id="title128">Sheet.15731</title>
									<g
   id="shape15732-45">
										<title
   id="title130">Sheet.15732</title>
										<path
   d="m 4.93,119.88 a 3.47083,3.35302 0 0 1 -4.64,0 L 0,125.44 a 0.457738,0.4422 0 0 0 0.783511,0.33198 L 2.57,124.03 l 1.8,1.76 a 0.457738,0.4422 0 0 0 0.789012,-0.32269 z"
   class="st8"
   id="path132"
   inkscape:connector-curvature="0"
   style="fill:#b31b1b;stroke:none;stroke-width:33.99980164;stroke-linecap:butt" />
									</g>
								</g>
							</g>
							<g
   id="group15733-47"
   transform="translate(0.640557,-4.85426)">
								<title
   id="title137">ellipse10</title>
								<g
   id="group15734-48">
									<title
   id="title139">Sheet.15734</title>
									<g
   id="shape15735-49">
										<title
   id="title141">Sheet.15735</title>
										<ellipse
   cx="4.1416302"
   cy="121.881"
   rx="4.1416302"
   ry="4.0143299"
   class="st9"
   id="ellipse143"
   style="fill:#e62323;stroke:none;stroke-width:33.99980164;stroke-linecap:butt" />
									</g>
								</g>
							</g>
							<g
   id="group15736-51"
   transform="translate(1.63988,-5.8231)">
								<title
   id="title148">ellipse12</title>
								<g
   id="group15737-52">
									<title
   id="title150">Sheet.15737</title>
									<g
   id="shape15738-53">
										<title
   id="title152">Sheet.15738</title>
										<ellipse
   cx="3.1422999"
   cy="122.851"
   rx="3.1422999"
   ry="3.04494"
   class="st10"
   id="ellipse154"
   style="fill:#ffb34d;stroke:none;stroke-width:33.99980164;stroke-linecap:butt" />
									</g>
								</g>
							</g>
						</g>
					</g>
					<g
   id="group15739-55"
   transform="translate(15.3973)">
						<title
   id="title161">Sheet.15739</title>
						<g
   id="group15740-56"
   transform="translate(0.0190122)">
							<title
   id="title163">Sheet.15740</title>
							<g
   id="shape15741-57">
								<title
   id="title165">Sheet.15741</title>
								<path
   d="M 16.39,96.9 0,119.36 l 16.39,6.54 16.38,-6.54 z"
   class="st11"
   id="path167"
   inkscape:connector-curvature="0"
   style="fill:#773adc;stroke:none;stroke-width:34;stroke-linecap:butt" />
							</g>
						</g>
						<g
   id="group15742-59">
							<title
   id="title171">Sheet.15742</title>
							<g
   id="shape15743-60">
								<title
   id="title173">Sheet.15743</title>
								<path
   d="M 16.39,96.9 0,119.36 16.39,125.9 Z"
   class="st12"
   id="path175"
   inkscape:connector-curvature="0"
   style="fill:#f9f9f9;fill-opacity:0.5;stroke:none;stroke-width:34;stroke-linecap:butt" />
							</g>
						</g>
					</g>
				</g>
			</g>
		</g>
	</g>
</svg>

<?xml version="1.0" encoding="UTF-8" standalone="no"?>
<!DOCTYPE svg PUBLIC "-//W3C//DTD SVG 1.1//EN" "http://www.w3.org/Graphics/SVG/1.1/DTD/svg11.dtd">
<!-- Generated by Microsoft Visio, SVG Export Enterprise Certification Authority Offline Root.svg Page-1 -->
<svg xmlns="http://www.w3.org/2000/svg" xmlns:xlink="http://www.w3.org/1999/xlink" xmlns:ev="http://www.w3.org/2001/xml-events"
		width="1.64096in" height="1.74855in" viewBox="0 0 118.149 125.896" xml:space="preserve" color-interpolation-filters="sRGB"
		class="st13">
	<style type="text/css">
	<![CDATA[
		.st1 {fill:url(#grad0-11);stroke:none;stroke-linecap:butt;stroke-width:35.9597}
		.st2 {fill:#003067;stroke:none;stroke-linecap:butt;stroke-width:35.9597}
		.st3 {fill:#50e6ff;stroke:none;stroke-linecap:butt;stroke-width:35.9597}
		.st4 {fill:#ffffff;fill-opacity:0.75;stroke:none;stroke-linecap:butt;stroke-width:35.9597}
		.st5 {fill:url(#grad0-34);stroke:none;stroke-linecap:butt;stroke-width:33.9998}
		.st6 {fill:#ffffff;stroke:none;stroke-linecap:butt;stroke-width:33.9998}
		.st7 {fill:#d15900;stroke:none;stroke-linecap:butt;stroke-width:33.9998}
		.st8 {fill:#b31b1b;stroke:none;stroke-linecap:butt;stroke-width:33.9998}
		.st9 {fill:#e62323;stroke:none;stroke-linecap:butt;stroke-width:33.9998}
		.st10 {fill:#ffb34d;stroke:none;stroke-linecap:butt;stroke-width:33.9998}
		.st11 {fill:#773adc;stroke:none;stroke-linecap:butt;stroke-width:34}
		.st12 {fill:#f9f9f9;fill-opacity:0.5;stroke:none;stroke-linecap:butt;stroke-width:34}
		.st13 {fill:none;fill-rule:evenodd;font-size:12px;overflow:visible;stroke-linecap:square;stroke-miterlimit:3}
	]]>
	</style>

	<defs id="Patterns_And_Gradients">
		<linearGradient id="grad0-11" x1="0" y1="0" x2="1" y2="0" gradientTransform="rotate(-90 0.5 0.5)">
			<stop offset="0" stop-color="#949494" stop-opacity="1"/>
			<stop offset="0.53" stop-color="#a2a2a2" stop-opacity="1"/>
			<stop offset="1" stop-color="#b3b3b3" stop-opacity="1"/>
		</linearGradient>
		<linearGradient id="grad0-34" x1="0" y1="0" x2="1" y2="0" gradientTransform="rotate(-90 0.5 0.5)">
			<stop offset="0" stop-color="#e27908" stop-opacity="1"/>
			<stop offset="0.325" stop-color="#e47d0a" stop-opacity="1"/>
			<stop offset="0.62" stop-color="#eb8810" stop-opacity="1"/>
			<stop offset="0.91" stop-color="#f69a19" stop-opacity="1"/>
			<stop offset="1" stop-color="#faa21d" stop-opacity="1"/>
		</linearGradient>
	</defs>
	<g>
		<title>Page-1</title>
		<g id="group15317-1" transform="translate(35.9599,-34.883)">
			<title>Enterprise Certification Authority Offline Root.15317</title>
			<g id="group15318-2">
				<title>Page-1</title>
				<g id="group15319-3">
					<title>Sheet.15319</title>
					<g id="group15320-4" transform="translate(2.3781E-13,-1.21412)">
						<title>Sheet.15320</title>
						<g id="group15321-5">
							<title>Icon-databases-136.149</title>
							<g id="group15322-6">
								<title>path4-5</title>
								<g id="group15323-7">
									<title>Sheet.15323</title>
									<g id="shape15324-8">
										<title>Sheet.15324</title>
										<path d="M31.79 124.06 A1.87777 1.86752 -180 0 1 29.95 125.9 L1.84 125.9 A1.8454 1.83531
													 -180 0 1 -0 124.06 L0 73.89 A1.81302 1.80311 -180 0 1 1.84 72.06 L29.95 72.06
													 A1.8454 1.83531 -180 0 1 31.79 73.89 L31.79 124.06 Z" class="st1"/>
									</g>
								</g>
							</g>
							<g id="group15325-12" transform="translate(4.66205,-31.5222)">
								<title>path6-7</title>
								<g id="group15326-13">
									<title>Sheet.15326</title>
									<g id="shape15327-14">
										<title>Sheet.15327</title>
										<path d="M0 122.46 A3.46416 3.44524 -180 0 1 3.43 119.03 L19.29 119.03 A3.46416 3.44524 -180
													 0 1 22.85 122.46 A3.46416 3.44524 -180 0 1 19.29 125.9 L3.43 125.9 A3.46416
													 3.44524 -180 0 1 -0 122.46 ZM0 112.27 A3.46416 3.44524 -180 0 1 3.43 108.83
													 L19.29 108.83 A3.46416 3.44524 -180 0 1 22.85 112.27 A3.46416 3.44524 -180 0
													 1 19.29 115.69 L3.43 115.69 A3.46416 3.44524 -180 0 1 0 112.27 Z" class="st2"/>
									</g>
								</g>
							</g>
							<g id="group15328-16" transform="translate(5.95706,-42.8242)">
								<title>circle8-5</title>
								<g id="group15329-17">
									<title>Sheet.15329</title>
									<g id="shape15330-18">
										<title>Sheet.15330</title>
										<ellipse cx="2.33102" cy="123.577" rx="2.33102" ry="2.31829" class="st3"/>
									</g>
								</g>
							</g>
							<g id="group15331-20" transform="translate(5.95706,-32.6496)">
								<title>circle10-2</title>
								<g id="group15332-21">
									<title>Sheet.15332</title>
									<g id="shape15333-22">
										<title>Sheet.15333</title>
										<ellipse cx="2.33102" cy="123.577" rx="2.33102" ry="2.31829" class="st3"/>
									</g>
								</g>
							</g>
						</g>
					</g>
					<g id="group15334-24" transform="translate(2.3781E-13,-1.07664)">
						<title>Sheet.15334</title>
						<g id="shape15335-25">
							<title>Sheet.15335</title>
							<path d="M31.79 124.06 A1.87777 1.86752 -180 0 1 29.95 125.9 L1.84 125.9 A1.8454 1.83531 -180 0 1 -0
										 124.06 L0 73.89 A1.81302 1.80311 -180 0 1 1.84 72.06 L29.95 72.06 A1.8454 1.83531 -180 0
										 1 31.79 73.89 L31.79 124.06 Z" class="st4"/>
						</g>
					</g>
					<g id="group15336-27" transform="translate(23.1191,-34.8277)">
						<title>Management Certificate.1189</title>
						<g id="group15337-28">
							<title>g14</title>
							<g id="group15338-29" transform="translate(0,-4.93504)">
								<title>rect2</title>
								<g id="group15339-30">
									<title>Sheet.15339</title>
									<g id="shape15340-31">
										<title>Sheet.15340</title>
										<path d="M-0 125.1 a0.824774 0.796774 -0 0 0 0.821337 0.791552 L23.92 125.9 a0.824774 0.796774
													 -0 0 0 0.828872 -0.791552 L24.74 109.76 a0.824774 0.796774 -0 0 0 -0.828872
													 -0.791552 L0.83 108.97 a0.824774 0.796774 -0 0 0 -0.821337 0.791552 L0 125.1
													 Z" class="st5"/>
									</g>
								</g>
							</g>
							<g id="group15341-35" transform="translate(1.44332,-6.42308)">
								<title>rect4</title>
								<g id="group15342-36">
									<title>Sheet.15342</title>
									<g id="shape15343-37">
										<title>Sheet.15343</title>
										<path d="M0 125.5 a0.412385 0.398388 -0 0 0 0.412376 0.398379 L21.44 125.89 a0.412385 0.398388
													 -0 0 0 0.412376 -0.398379 L21.86 112.35 a0.412385 0.398388 -0 0 0 -0.412376
													 -0.398379 L0.41 111.95 a0.412385 0.398388 -0 0 0 -0.412376 0.398379 L0 125.5
													 Z" class="st6"/>
									</g>
								</g>
							</g>
							<g id="group15344-39" transform="translate(4.75883,-10.0883)">
								<title>path6</title>
								<g id="group15345-40">
									<title>Sheet.15345</title>
									<g id="shape15346-41">
										<title>Sheet.15346</title>
										<path d="M15.78 125.51 a0.39863 0.385099 0 0 1 -0.39863 0.385099 L6.47 125.9 a0.39863 0.385099
													 0 1 1 -9.76996E-15 -0.76887 L15.39 125.13 a0.397255 0.383772 0 0 1 0.39863 0.383772
													 L15.78 125.51 ZM15.78 123.13 a0.397255 0.383772 0 0 1 -0.39863 0.383772 L6.47
													 123.51 a0.39863 0.385099 0 1 1 -1.15463E-14 -0.76887 L15.39 122.74 a0.39863
													 0.385099 0 0 1 0.39863 0.385099 L15.78 123.13 ZM15.78 119.66 a0.39863 0.385099
													 0 0 1 -0.39863 0.385099 L0.42 120.04 a0.39863 0.385099 0 1 1 -1.06026E-14 -0.76887
													 L15.39 119.27 a0.397255 0.383772 0 0 1 0.39863 0.383772 L15.78 119.66 Z"
												class="st7"/>
									</g>
								</g>
							</g>
							<g id="group15347-43" transform="translate(2.12649,1.42109E-14)">
								<title>path8</title>
								<g id="group15348-44">
									<title>Sheet.15348</title>
									<g id="shape15349-45">
										<title>Sheet.15349</title>
										<path d="M4.93 119.88 A3.47083 3.35302 0 0 1 0.29 119.88 L0 125.44 a0.457738 0.4422 -0 0
													 0 0.783511 0.331982 L2.57 124.03 L4.37 125.79 a0.457738 0.4422 -0 0 0 0.789012
													 -0.322687 L4.93 119.88 Z" class="st8"/>
									</g>
								</g>
							</g>
							<g id="group15350-47" transform="translate(0.640557,-4.85426)">
								<title>ellipse10</title>
								<g id="group15351-48">
									<title>Sheet.15351</title>
									<g id="shape15352-49">
										<title>Sheet.15352</title>
										<ellipse cx="4.14163" cy="121.881" rx="4.14163" ry="4.01433" class="st9"/>
									</g>
								</g>
							</g>
							<g id="group15353-51" transform="translate(1.63988,-5.8231)">
								<title>ellipse12</title>
								<g id="group15354-52">
									<title>Sheet.15354</title>
									<g id="shape15355-53">
										<title>Sheet.15355</title>
										<ellipse cx="3.1423" cy="122.851" rx="3.1423" ry="3.04494" class="st10"/>
									</g>
								</g>
							</g>
						</g>
					</g>
					<g id="group15356-55" transform="translate(15.3973,-2.70006E-13)">
						<title>Sheet.15356</title>
						<g id="group15357-56" transform="translate(0.0190122,1.42109E-14)">
							<title>Sheet.15357</title>
							<g id="shape15358-57">
								<title>Sheet.15358</title>
								<path d="M16.39 96.9 L0 119.36 L16.39 125.9 L32.77 119.36 L16.39 96.9 Z" class="st11"/>
							</g>
						</g>
						<g id="group15359-59">
							<title>Sheet.15359</title>
							<g id="shape15360-60">
								<title>Sheet.15360</title>
								<path d="M16.39 96.9 L0 119.36 L16.39 125.9 L16.39 96.9 Z" class="st12"/>
							</g>
						</g>
					</g>
				</g>
			</g>
		</g>
	</g>
</svg>
